X:1
T:Title
%%score 1 2 3 4
L:1/8
M:2/2
K:C
V:1 treble nm="Part_1"
V:2 treble-8 nm="Part_2"
V:3 treble-8 nm="Part_3"
V:4 treble-8 nm="Part_4"
V:1
 E8- | E8 | F8 | E8 | D8 | G8 | G8 | A6 B2 | c4 c4- | c4 B4 | c8 | z8 | c8 | d8 | c8 | c4 A4 | B8 | %17
 A4 (3:2:2d4 c2 | _B4 A4- | A2 G2 G4- | G4 ^F4 | G8 | z8 | G8 | A8 | c8 | B8 | A6 GF | E4 A4 | %29
 B4 c4- | c2 B2 A4- | A4 G4 | A8 | z8 | A8 | B8 | G6 E2 | F4 E4- | E4 A4- | A4 G4 | F4 D4 | E8 | %42
 D8 | z8 | C8 | E8 | D4 G4- | G4 E4- | E4 A4- | A2 G2 G4- | G4 ^F4 | G8 | z8 | A8 | B8 | G8 | %56
 G4 A4 | F4 G4- | G4 E4 | C4 D4- | D4 G4 | F2 A4 G2 | E4 F4 | G6 F2 | D6 CD | E8 |] %66
V:2
 B8- | B4 c4 | d8 | c4 (3:2:2G4 A2 | B8 | z4 e4- | e4 c4- | c8 | c4 e2 f2 | (3:2:2g8 f4 | e4 f4 | %11
 g2 e4 cB | A4 c2 B2 | G4 B4 | c2 d2 e4- | e2 (3:2:2f4 e2 f2 | g8 | z4 f4 | f8 | f2 e2 d4- | %20
 d4 c4 | B6 A2 | B4 c2 d2 | e8- | e4 f2 e2 | c6 A2 | B4 G4 | f8 | z4 f4 | g8 | e4 f4 | d8 | %32
 (3:2:2d8 e4 | f6 e2 | d2 c2 c4 | d4 B2 A2 | c8 | A8 | c8 | z4 e4 | d2 cB A4 | z4 A4 | B6 A2 | %43
 A4 B4 | A2 F4 A2 | G8 | z4 E4 | G8 | A8- | A4 B2 c2 | d8 | z4 B4 | B6 c2 | d8 | z4 B4 | %55
 B4 (3:2:2c4 d2 | e4 f4- | f2 d4 B2 | e6 d2 | c2 B2 A4 | B4 c4 | d8 | z4 d4 | c2 B2 B4 | z2 A4 F2 | %65
 B8 |] %66
V:3
 E8- | E8 | A8 | G4 c4 | d4 B4- | B4 c4- | c2 d2 e2 de | f8 | e4 c4 | d8 | c8- | c8 | e8 | d6 c2 | %14
 A8- | A8 | G8 | d8 | d4 c4- | c4 B4 | A8 | G8- | G8 | z4 c4 | c8 | A8 | G8 | d8 | c8 | d4 e4- | %30
 e4 c4 | B8 | A8- | A8 | z8 | d8 | e8 | d4 c4 | A8 | c6 B2 | d4 d4- | d4 c4 | d8- | d8 | A8 | c8 | %46
 B8 | c8- | c8 | d4 B4 | A8 | G8- | G8 | z8 | d8 | e8 | c8 | d4 B4 | c8 | A4 F4 | G8 | D8 | A8 | %63
 G4 E4 | F8 | E8 |] %66
V:4
 B8 | G8 | D4 (3:2:2F4 E2 | C8 | G8 | E8 | C8 | z4 F2 E2 | C8 | G8 | A4 (3:2:2F4 E2 | C8 | z8 | %13
 G8 | F2 A4 B2 | c8 | d4 B2 G2 | D8- | D4 F4- | F4 G4 | D8 | z4 E4 | E8 | C8 | z4 F4- | F2 c4 B2 | %26
 d8 | z8 | A4 F2 A2 | G4 C4- | C4 F4 | G8 | F4 D4- | D4 F4- | F4 A2 F2 | G8 | E4 C4 | D4 A4- | %38
 A4 F4- | F2 D2 E4 | D8 | A8 | z4 D4 | D8 | (3:2:2F8 E4 | C8 | G8 | C8 | z4 F4 | D4 G4 | D8 | d8- | %52
 d8 | D8 | G8 | E8 | z4 F4 | D4 E4 | C8 | F8 | z4 E4 | A4 F4 | z2 A2 D4 | E4 G4 | A6 G2 | B8 |] %66

